X:1
T:Over the Border Land
T:Over the Border Land
T:John Herman Alleman
T:John Herman Alleman, 1893
T:Public Domain Courtesy of the Cyber Hymnal™
C:John Herman Alleman
Z:Public Domain
Z:Courtesy of the Cyber Hymnal™
%%score ( 1 2 ) ( 3 4 )
L:1/8
Q:1/4=107
M:4/4
K:Eb
V:1 treble 
V:2 treble 
V:3 bass 
V:4 bass 
V:1
 (EG) | [EB]2 [EB]2 [EB]2 [EB]2 | [Ec]2 [Ec]2 [EB]2 [EG]2 | [GB]2 [GB][EG] E2 [EG]2 | [DF]6 (EG) | %5
w: 1.~A *|home on high is|wait- ing me, Just|o- ver the bor- der|land; And *|
w: 2.~My *|loved ones there will|wel- come me, Just|o- ver the bor- der|land; And *|
w: 3.~My *|Sav- ior there is|call- ing me, Just|o- ver the bor- der|land; And *|
w: 4.~The *|smiles of God will|fall on me, Just|o- ver the bor- der|land; And *|
 [EB]2 [EB]2 [EB]2 [EB]2 | [Ec]2 [Ec]2 [EB]2 (EF) | [EG]2 [EG][EG] [DF]2 [DF]2 | E6 || %9
w: there my Sav- ior|I shall see, Just *|o- ver the bor- der|land.|
w: with them soon I’ll|ev- er be, Just *|o- ver the bor- der|land.|
w: by His grace will|make me free, Just *|o- ver the bor- der|land.|
w: bless me thro’ e-|ter- ni- ty, Just *|o- ver the bor- der|land.|
"^Refrain" (EF) | [EG]2 [EG][EG] [EG]2 A2 | B6 [EB]2 | [Ec]2 [Ec]2 [EB]2 GG | F6 [DB]2 | %14
w: |||||
w: Just *|o- ver the bor- der|land, There|waits the home of the|soul, Where|
w: |||||
w: |||||
 [Ee]2 [Ee]2 [Fd]2 [Fd][Fd] | [Ec]2 [Fc]2 [GB]2 (EF) | [EG]2 [EG][EG] [DF]2 [DF]2 | E6 |] %18
w: ||||
w: praise shall ring as the|years shall roll, Just *|o- ver the bor- der|land.|
w: ||||
w: ||||
V:2
 E2 | x8 | x8 | x4 E2 x2 | x6 E2 | x8 | x6 E2 | x8 | E6 || E2 | x6 (DD) | (E2 D2 E2) x2 | x6 E2 | %13
 (F2 EE D2) x2 | x8 | x6 E2 | x8 | E6 |] %18
V:3
 (G,B,) | [E,G,]2 [E,G,]2 [E,G,]2 [E,G,]2 | [A,,A,]2 [C,A,]2 [E,G,]2 [E,B,]2 | %3
w: ~ *|~ ~ ~ ~|~ ~ ~ ~|
 [E,E]2 [E,E][E,B,] [E,G,]2 [E,B,]2 | [B,,A,]6 (G,B,) | [E,G,]2 [E,G,]2 [E,G,]2 [E,G,]2 | %6
w: ~ ~ ~ ~ ~|~ ~ *|~ ~ ~ ~|
 [A,,A,]2 [C,A,]2 [E,G,]2 ([G,B,][A,C]) | B,2 B,B, [B,,A,]2 [B,,A,]2 | [E,G,]6 || (G,A,) | %10
w: ~ ~ ~ ~ *|~ ~ ~ ~ ~|~|Just *|
 [E,B,]2 [E,B,][E,B,] [E,B,]2 [F,B,][F,B,] | [G,B,]2 [F,A,]2 [E,G,]2 [G,B,]2 | %12
w: o- ver the bor- der, the|bor- der land, There|
 A,2 A,2 [G,B,]2 [E,B,]2 | [D,B,]2 [C,=A,][C,A,] [B,,A,]2 [_A,B,]2 | %14
w: waits the home, the|home of the soul, *|
 [G,B,]2 [G,B,]2 [G,=B,]2 [G,B,][G,B,] | [A,C]2 [A,D]2 [E,E]2 ([G,B,][A,C]) | %16
w: ||
 B,2 B,B, [B,,A,]2 [B,,A,]2 | [E,G,]6 |] %18
w: ||
V:4
 E,2 | x8 | x8 | x8 | x6 E,2 | x8 | x8 | B,2 B,B, x4 | x6 || E,2 | x8 | x8 | A,2 A,2 x4 | x8 | x8 | %15
 x8 | B,2 B,B, x4 | x6 |] %18

